svg/icon/kin.svg

<svg xmlns="http://www.w3.org/2000/svg" xmlns:xlink="http://www.w3.org/1999/xlink" width="32" height="32" viewBox="0 0 32 32">
  <defs>
    <linearGradient id="kin-c" x1="50%" x2="50%" y1="0%" y2="100%">
      <stop offset="0%" stop-color="#FFF" stop-opacity=".5"/>
      <stop offset="100%" stop-opacity=".5"/>
    </linearGradient>
    <circle id="kin-b" cx="16" cy="15" r="15"/>
    <filter id="kin-a" width="111.7%" height="111.7%" x="-5.8%" y="-4.2%" filterUnits="objectBoundingBox">
      <feOffset dy=".5" in="SourceAlpha" result="shadowOffsetOuter1"/>
      <feGaussianBlur in="shadowOffsetOuter1" result="shadowBlurOuter1" stdDeviation=".5"/>
      <feComposite in="shadowBlurOuter1" in2="SourceAlpha" operator="out" result="shadowBlurOuter1"/>
      <feColorMatrix in="shadowBlurOuter1" values="0 0 0 0 0   0 0 0 0 0   0 0 0 0 0  0 0 0 0.199473505 0"/>
    </filter>
    <path id="kin-e" d="M13.7014925,17.0072993 L13.7014925,12.189781 L14.8264478,12.189781 C15.0687761,12.189781 15.2651343,12.3837664 15.2651343,12.6231971 L15.2651343,13.0394307 C15.2651343,13.4908321 15.6583433,13.8792847 16.1149254,13.8792847 C16.5716716,13.8792847 16.9185821,13.4908321 16.9187463,13.0394307 L16.9185821,12.6394161 C16.9185821,12.3909927 17.1224925,12.189781 17.3736866,12.189781 L18.6268657,12.189781 L18.6268657,13.4068467 C18.6268657,13.6552701 18.4231194,13.8566423 18.1719254,13.8566423 L18.1717612,13.8566423 L17.747194,13.8566423 C17.2904478,13.8566423 16.9203881,14.2224526 16.9187463,14.673854 C16.9187463,15.1252555 17.3433134,15.4910657 17.8000597,15.4910657 L18.1753731,15.4910657 C18.4247612,15.4910657 18.6268657,15.6908321 18.6268657,15.9370073 L18.6268657,17.0072993 L19.6355821,17.0072993 C19.9851194,17.0072993 20.2686567,17.2846277 20.2686567,17.6265109 L20.2686567,17.9940876 C20.2686567,18.3359708 19.9851194,18.6131387 19.6355821,18.6131387 L19.2599403,18.6131387 C18.910403,18.6131387 18.6268657,18.3359708 18.6268657,17.9940876 L18.6268657,17.1678832 L17.3700746,17.1678832 C17.1208507,17.1678832 16.9187463,16.9681168 16.9185821,16.721781 L16.9187463,16.3097226 C16.9187463,15.8584818 16.5332537,15.4775766 16.0766716,15.4759708 C15.6199254,15.4759708 15.2651343,15.8751825 15.2651343,16.3506715 L15.2651343,16.7254745 C15.2651343,16.9697226 15.0646716,17.1678832 14.8172537,17.1678832 L13.7014925,17.1678832 L13.7014925,17.9940876 C13.7014925,18.3359708 13.4179552,18.6131387 13.0684179,18.6131387 L12.6927761,18.6131387 C12.3432388,18.6131387 12.0597015,18.3359708 12.0597015,17.9940876 L12.0597015,17.6265109 C12.0597015,17.2846277 12.3432388,17.0072993 12.6927761,17.0072993 L13.7014925,17.0072993 Z M19.6355821,12.0291971 L18.6268657,12.0291971 L18.6268657,11.0425693 C18.6268657,10.7006861 18.910403,10.4233577 19.2599403,10.4233577 L19.6355821,10.4233577 C19.9851194,10.4233577 20.2686567,10.7006861 20.2686567,11.0425693 L20.2686567,11.410146 C20.2686567,11.7520292 19.9851194,12.0291971 19.6355821,12.0291971 Z M13.7014925,12.0291971 L12.6927761,12.0291971 C12.3432388,12.0291971 12.0597015,11.7520292 12.0597015,11.410146 L12.0597015,11.0425693 C12.0597015,10.7006861 12.3432388,10.4233577 12.6927761,10.4233577 L13.0684179,10.4233577 C13.4179552,10.4233577 13.7014925,10.7006861 13.7014925,11.0425693 L13.7014925,12.0291971 Z M15.9763582,10.5839416 C15.6268209,10.5839416 15.3432836,10.3066131 15.3432836,9.96472993 L15.3432836,9.59715328 C15.3432836,9.25527007 15.6268209,8.97810219 15.9763582,8.97810219 L16.352,8.97810219 C16.7015373,8.97810219 16.9850746,9.25527007 16.9850746,9.59715328 L16.9850746,9.96472993 C16.9850746,10.3066131 16.7015373,10.5839416 16.352,10.5839416 L15.9763582,10.5839416 Z M15.9763582,20.379562 C15.6268209,20.379562 15.3432836,20.1023942 15.3432836,19.7605109 L15.3432836,19.3929343 C15.3432836,19.0510511 15.6268209,18.7737226 15.9763582,18.7737226 L16.352,18.7737226 C16.7015373,18.7737226 16.9850746,19.0510511 16.9850746,19.3929343 L16.9850746,19.7605109 C16.9850746,20.1023942 16.7015373,20.379562 16.352,20.379562 L15.9763582,20.379562 Z M20.9017313,15.4014599 C20.5520299,15.4014599 20.2686567,15.124292 20.2686567,14.7824088 L20.2686567,14.4148321 C20.2686567,14.0729489 20.5520299,13.7956204 20.9017313,13.7956204 L21.2773731,13.7956204 C21.6269104,13.7956204 21.9104478,14.0729489 21.9104478,14.4148321 L21.9104478,14.7824088 C21.9104478,15.124292 21.6269104,15.4014599 21.2773731,15.4014599 L20.9017313,15.4014599 Z M10.886806,15.4014599 C10.5371045,15.4014599 10.2537313,15.124292 10.2537313,14.7824088 L10.2537313,14.4148321 C10.2537313,14.0729489 10.5371045,13.7956204 10.886806,13.7956204 L11.2624478,13.7956204 C11.6119851,13.7956204 11.8955224,14.0729489 11.8955224,14.4148321 L11.8955224,14.7824088 C11.8955224,15.124292 11.6119851,15.4014599 11.2624478,15.4014599 L10.886806,15.4014599 Z M18.6532985,20.422438 C18.9463582,20.3037664 19.2824328,20.4399416 19.4037612,20.7265839 C19.5254179,21.0133869 19.3860299,21.3419416 19.0929701,21.4607737 C18.7999104,21.5794453 18.4638358,21.4434307 18.3423433,21.1566277 C18.2210149,20.8698248 18.3602388,20.5412701 18.6532985,20.422438 Z M13.3995672,7.89689051 C13.6926269,7.77821898 14.0288657,7.91439416 14.150194,8.2010365 C14.2715224,8.48783942 14.1322985,8.81639416 13.8392388,8.93522628 C13.5460149,9.05389781 13.2099403,8.91788321 13.0886119,8.63108029 C12.9672836,8.34427737 13.1065075,8.01572263 13.3995672,7.89689051 Z M21.9542836,12.3245109 C21.8329552,12.037708 21.9721791,11.7091533 22.2652388,11.5903212 C22.5584627,11.4716496 22.894209,11.6078248 23.0158657,11.8944672 C23.137194,12.1812701 22.9979701,12.5099854 22.7049104,12.6286569 C22.4116866,12.7473285 22.0756119,12.6113139 21.9542836,12.3245109 Z M9.31249254,17.4631971 C9.19116418,17.1765547 9.33038806,16.8478394 9.62344776,16.7291679 C9.91667164,16.6101752 10.2524179,16.7465109 10.3740746,17.0331533 C10.495403,17.3197956 10.3561791,17.6486715 10.0631194,17.7673431 C9.76989552,17.8860146 9.4338209,17.75 9.31249254,17.4631971 Z M9.31249254,11.8944672 C9.43414925,11.6078248 9.76989552,11.4716496 10.0631194,11.5903212 C10.3561791,11.7091533 10.495403,12.0378686 10.3740746,12.3245109 C10.2524179,12.6113139 9.91667164,12.7473285 9.62344776,12.6286569 C9.33038806,12.5099854 9.19116418,12.1812701 9.31249254,11.8944672 Z M18.4891194,8.93522628 C18.1960597,8.81639416 18.0568358,8.48783942 18.1781642,8.2010365 C18.2994925,7.91439416 18.6355672,7.77821898 18.928791,7.89689051 C19.2218507,8.01572263 19.3610746,8.34427737 19.2397463,8.63108029 C19.1184179,8.91788321 18.7821791,9.05389781 18.4891194,8.93522628 Z M21.9542836,17.0331533 C22.0759403,16.7465109 22.4118507,16.6101752 22.7049104,16.7291679 C22.9979701,16.8478394 23.137194,17.1765547 23.0158657,17.4631971 C22.8945373,17.75 22.5584627,17.8860146 22.2652388,17.7673431 C21.9721791,17.6486715 21.8329552,17.3197956 21.9542836,17.0331533 Z M13.071209,21.6213577 C12.7781493,21.5025255 12.6387612,21.1739708 12.7604179,20.8871679 C12.8817463,20.6005255 13.2178209,20.4643504 13.5108806,20.5830219 C13.8039403,20.701854 13.9431642,21.0304088 13.8218358,21.3172117 C13.7003433,21.6040146 13.3642687,21.7400292 13.071209,21.6213577 Z M21.5141194,19.9919124 C21.6425075,19.8664964 21.850194,19.8664964 21.9784179,19.9919124 C22.1066418,20.1173285 22.1066418,20.3206277 21.9784179,20.4460438 C21.850194,20.5714599 21.6425075,20.5714599 21.5141194,20.4460438 C21.3858955,20.3206277 21.3858955,20.1173285 21.5141194,19.9919124 Z M10.3499403,8.91162044 C10.4781642,8.78620438 10.6860149,8.78620438 10.8142388,8.91162044 C10.9424627,9.0370365 10.9424627,9.24033577 10.8142388,9.36575182 C10.6860149,9.49116788 10.4781642,9.49116788 10.3499403,9.36575182 C10.2217164,9.24033577 10.2217164,9.0370365 10.3499403,8.91162044 Z M21.5141194,9.36575182 C21.3858955,9.24033577 21.3858955,9.0370365 21.5141194,8.91162044 C21.6425075,8.78620438 21.850194,8.78620438 21.9784179,8.91162044 C22.1066418,9.0370365 22.1066418,9.24033577 21.9784179,9.36575182 C21.850194,9.49116788 21.6425075,9.49116788 21.5141194,9.36575182 Z M10.3499403,20.4460438 C10.2217164,20.3206277 10.2217164,20.1173285 10.3499403,19.9919124 C10.4781642,19.8664964 10.6860149,19.8664964 10.8142388,19.9919124 C10.9424627,20.1173285 10.9424627,20.3206277 10.8142388,20.4460438 C10.6860149,20.5714599 10.4781642,20.5714599 10.3499403,20.4460438 Z M23.880597,14.5987007 C23.880597,14.4212555 24.0277015,14.2773723 24.208791,14.2773723 C24.390209,14.2773723 24.5373134,14.4212555 24.5373134,14.5987007 C24.5373134,14.7758248 24.390209,14.919708 24.208791,14.919708 C24.0277015,14.919708 23.880597,14.7758248 23.880597,14.5987007 Z M7.95522388,14.5987007 C7.95522388,14.4212555 8.10216418,14.2773723 8.28358209,14.2773723 C8.46483582,14.2773723 8.6119403,14.4212555 8.6119403,14.5987007 C8.6119403,14.7758248 8.46483582,14.919708 8.28358209,14.919708 C8.10216418,14.919708 7.95522388,14.7758248 7.95522388,14.5987007 Z M16.1643433,7.21167883 C15.9829254,7.21167883 15.8358209,7.0679562 15.8358209,6.89051095 C15.8358209,6.71306569 15.9829254,6.56934307 16.1643433,6.56934307 C16.3454328,6.56934307 16.4925373,6.71306569 16.4925373,6.89051095 C16.4925373,7.0679562 16.3454328,7.21167883 16.1643433,7.21167883 Z M16.1643433,22.7883212 C15.9829254,22.7883212 15.8358209,22.644438 15.8358209,22.4671533 C15.8358209,22.289708 15.9829254,22.1459854 16.1643433,22.1459854 C16.3454328,22.1459854 16.4925373,22.289708 16.4925373,22.4671533 C16.4925373,22.644438 16.3454328,22.7883212 16.1643433,22.7883212 Z M26.3432836,14.5985401 C26.3432836,14.4214161 26.4905522,14.2773723 26.6716418,14.2773723 C26.8527313,14.2773723 27,14.4214161 27,14.5985401 C27,14.7756642 26.8527313,14.919708 26.6716418,14.919708 C26.4905522,14.919708 26.3432836,14.7756642 26.3432836,14.5985401 Z M5.24626866,14.4379562 C5.38220896,14.4379562 5.49253731,14.5458686 5.49253731,14.6788321 C5.49253731,14.8117956 5.38220896,14.919708 5.24626866,14.919708 C5.11049254,14.919708 5,14.8117956 5,14.6788321 C5,14.5458686 5.11049254,14.4379562 5.24626866,14.4379562 Z M15.6716418,4.32116788 C15.6716418,4.1440438 15.8189104,4 16,4 C16.1810896,4 16.3283582,4.1440438 16.3283582,4.32116788 C16.3283582,4.49829197 16.1810896,4.64233577 16,4.64233577 C15.8189104,4.64233577 15.6716418,4.49829197 15.6716418,4.32116788 Z M25.3969552,18.4258978 C25.5025224,18.1811679 25.7919701,18.0658686 26.0423433,18.1694453 C26.2925522,18.2728613 26.4101045,18.5558102 26.3045373,18.8007007 C26.2252388,18.9844088 26.0423433,19.0948905 25.8500896,19.0948905 C25.7863881,19.0948905 25.7215373,19.0826861 25.6591493,19.0569927 C25.4091045,18.9537372 25.2913881,18.6704672 25.3969552,18.4258978 Z M20.0678657,23.6166131 C20.148806,23.6501752 20.2113582,23.7123212 20.2443582,23.7916496 C20.2773582,23.8711387 20.2767015,23.9583358 20.2427164,24.0371825 C20.2085672,24.1163504 20.1450299,24.1775328 20.0637612,24.2098102 C19.9823284,24.2422482 19.8933433,24.2414453 19.8127313,24.2080438 C19.7319552,24.1748029 19.6692388,24.1126569 19.6362388,24.0331679 C19.6032388,23.9536788 19.6038955,23.8664818 19.6378806,23.787635 C19.6720299,23.7086277 19.7355672,23.6472847 19.8168358,23.6150073 C19.8567313,23.5992701 19.898597,23.5912409 19.9404627,23.5912409 C19.983806,23.5912409 20.0269851,23.5997518 20.0678657,23.6166131 Z M6.441,10.288146 C6.52177612,10.321708 6.58449254,10.3836934 6.61749254,10.4631825 C6.65049254,10.5425109 6.64983582,10.6298686 6.61585075,10.7087153 C6.58170149,10.7877226 6.51816418,10.8489051 6.43689552,10.8811825 C6.35562687,10.9136204 6.26647761,10.9129781 6.18586567,10.8795766 C6.10492537,10.8463358 6.04237313,10.7841898 6.00937313,10.7047007 C5.97637313,10.6253723 5.97702985,10.5380146 6.01101493,10.4591679 C6.045,10.3801606 6.10853731,10.3188175 6.18997015,10.2865401 C6.22986567,10.2708029 6.27173134,10.2627737 6.31326866,10.2627737 C6.35677612,10.2627737 6.39995522,10.2712847 6.441,10.288146 Z M5.5248806,18.5373431 C5.61304478,18.3330803 5.85373134,18.2375328 6.06256716,18.3236058 C6.27140299,18.4098394 6.36908955,18.6452555 6.28108955,18.8495182 C6.19292537,19.053781 5.95223881,19.1493285 5.74340299,19.0632555 C5.53456716,18.9770219 5.4368806,18.7414453 5.5248806,18.5373431 Z M19.862806,5.2530365 C19.6539701,5.16680292 19.5562836,4.93138686 19.6442836,4.72712409 C19.7324478,4.52286131 19.9731343,4.42731387 20.1819701,4.51338686 C20.390806,4.59962044 20.4884925,4.8350365 20.4004925,5.03929927 C20.3123284,5.24356204 20.0714776,5.33910949 19.862806,5.2530365 Z M26.0044179,10.1200146 C26.0342985,10.1081314 26.0658209,10.1021898 26.0971791,10.1021898 C26.1296866,10.1021898 26.1620299,10.1084526 26.1928955,10.1212993 C26.3178358,10.1730073 26.3766119,10.3144818 26.3239104,10.4368467 C26.2982985,10.4961022 26.2505224,10.5418686 26.1896119,10.5661168 C26.1288657,10.590365 26.0618806,10.5898832 26.0012985,10.5648321 C25.9407164,10.5399416 25.8937612,10.4932117 25.8689701,10.4337956 C25.8441791,10.374219 25.8446716,10.3087007 25.8702836,10.2494453 C25.8957313,10.1901898 25.9435075,10.1442628 26.0044179,10.1200146 Z M11.5865373,4.9500146 C11.6261045,4.85816058 11.7175522,4.80291971 11.8137612,4.80291971 C11.8456119,4.80291971 11.8779552,4.8090219 11.9091493,4.8220292 C12.0342537,4.87357664 12.093194,5.01489051 12.0403284,5.13725547 C12.0147164,5.19651095 11.9669403,5.24259854 11.9060299,5.26684672 C11.8452836,5.29093431 11.7782985,5.29077372 11.7175522,5.26556204 C11.5924478,5.21385401 11.5336716,5.07237956 11.5865373,4.9500146 Z M11.6495821,23.9124088 C11.681597,23.9124088 11.7139403,23.9185109 11.7451343,23.9315182 C11.8702388,23.9830657 11.9290149,24.1247007 11.8761493,24.2469051 C11.8234478,24.3692701 11.6786418,24.4269197 11.5535373,24.3752117 C11.4284328,24.3235036 11.3694925,24.1818686 11.4223582,24.0596642 C11.4620896,23.9676496 11.5535373,23.9124088 11.6495821,23.9124088 Z M23.2920149,22.2126277 C23.1636269,22.3380438 22.9554478,22.3378832 22.8273881,22.2126277 C22.6993284,22.0872117 22.6993284,21.8835912 22.8273881,21.7584964 C22.8894478,21.697635 22.9718657,21.6642336 23.0597015,21.6642336 C23.1473731,21.6642336 23.2299552,21.697635 23.2920149,21.7584964 C23.4200746,21.8835912 23.4200746,22.0872117 23.2920149,22.2126277 Z M7.93502985,7.03150365 C8.1271194,6.84345985 8.4398806,6.84345985 8.63213433,7.03150365 C8.8240597,7.21938686 8.8240597,7.52529927 8.63213433,7.7130219 C8.53592537,7.8069635 8.40983582,7.8540146 8.28358209,7.8540146 C8.15732836,7.8540146 8.03123881,7.8069635 7.93502985,7.7130219 C7.74310448,7.52529927 7.74310448,7.21938686 7.93502985,7.03150365 Z M23.4602985,7.12159124 C23.5082388,7.07454015 23.5712836,7.05109489 23.6344925,7.05109489 C23.6975373,7.05109489 23.7605821,7.07454015 23.8086866,7.12159124 C23.9045672,7.21553285 23.9045672,7.36840876 23.8085224,7.46235036 C23.7126418,7.55629197 23.5561791,7.55645255 23.4602985,7.46218978 C23.4136716,7.41690511 23.3880597,7.35636496 23.3880597,7.2919708 C23.3880597,7.22757664 23.4136716,7.16719708 23.4602985,7.12159124 Z M8.02729851,21.7348905 C8.07392537,21.6892847 8.13565672,21.6642336 8.20149254,21.6642336 C8.26732836,21.6642336 8.32922388,21.6892847 8.37568657,21.7348905 C8.47173134,21.8286715 8.47173134,21.981708 8.37568657,22.0754891 C8.27980597,22.1694307 8.12334328,22.1695912 8.02713433,22.0754891 C7.93125373,21.981708 7.93125373,21.8286715 8.02729851,21.7348905 Z M16.0822537,26 C15.8553582,26 15.6716418,25.8203066 15.6716418,25.5987007 C15.6716418,25.3769343 15.8553582,25.1970803 16.0822537,25.1970803 C16.3088209,25.1970803 16.4925373,25.3769343 16.4925373,25.5987007 C16.4925373,25.8203066 16.3088209,26 16.0822537,26 Z"/>
    <filter id="kin-d" width="115.9%" height="115.9%" x="-8%" y="-5.7%" filterUnits="objectBoundingBox">
      <feOffset dy=".5" in="SourceAlpha" result="shadowOffsetOuter1"/>
      <feGaussianBlur in="shadowOffsetOuter1" result="shadowBlurOuter1" stdDeviation=".5"/>
      <feColorMatrix in="shadowBlurOuter1" values="0 0 0 0 0   0 0 0 0 0   0 0 0 0 0  0 0 0 0.204257246 0"/>
    </filter>
  </defs>
  <g fill="none" fill-rule="evenodd">
    <use fill="#000" filter="url(#kin-a)" xlink:href="#kin-b"/>
    <use fill="#005FFF" xlink:href="#kin-b"/>
    <use fill="url(#kin-c)" style="mix-blend-mode:soft-light" xlink:href="#kin-b"/>
    <circle cx="16" cy="15" r="14.5" stroke="#000" stroke-opacity=".097"/>
    <g>
      <use fill="#000" filter="url(#kin-d)" xlink:href="#kin-e"/>
      <use fill="#FFF" xlink:href="#kin-e"/>
    </g>
  </g>
</svg>

<svg height="32" width="32" xmlns="http://www.w3.org/2000/svg" xmlns:xlink="http://www.w3.org/1999/xlink"><defs><linearGradient id="c" x1="50%" x2="50%" y1="0%" y2="100%"><stop offset="0" stop-color="#fff" stop-opacity=".5"/><stop offset="1" stop-opacity=".5"/></linearGradient><circle id="b" cx="16" cy="15" r="15"/><filter id="a" height="111.7%" width="111.7%" x="-5.8%" y="-4.2%"><feOffset dy=".5" in="SourceAlpha" result="shadowOffsetOuter1"/><feGaussianBlur in="shadowOffsetOuter1" result="shadowBlurOuter1" stdDeviation=".5"/><feComposite in="shadowBlurOuter1" in2="SourceAlpha" operator="out" result="shadowBlurOuter1"/><feColorMatrix in="shadowBlurOuter1" values="0 0 0 0 0 0 0 0 0 0 0 0 0 0 0 0 0 0 0.199473505 0"/></filter><path id="e" d="M13.701 17.007V12.19h1.125c.243 0 .44.194.44.433v.416c0 .452.392.84.849.84.457 0 .804-.388.804-.84v-.4c0-.248.203-.45.455-.45h1.253v1.218c0 .248-.204.45-.455.45h-.425a.824.824 0 0 0-.828.817c0 .451.424.817.881.817h.375c.25 0 .452.2.452.446v1.07h1.009c.35 0 .633.278.633.62v.367c0 .342-.284.62-.633.62h-.376a.626.626 0 0 1-.633-.62v-.826H17.37c-.25 0-.451-.2-.451-.446v-.412a.85.85 0 0 0-.842-.834c-.457 0-.812.4-.812.875v.374c0 .245-.2.443-.448.443h-1.116v.826c0 .342-.283.62-.633.62h-.375a.626.626 0 0 1-.633-.62v-.367c0-.342.283-.62.633-.62zm5.935-4.978h-1.01v-.986c0-.342.284-.62.634-.62h.376c.35 0 .633.278.633.62v.367c0 .342-.284.62-.633.62zm-5.935 0h-1.008a.626.626 0 0 1-.633-.619v-.367c0-.342.283-.62.633-.62h.375c.35 0 .633.278.633.62zm2.275-1.445a.626.626 0 0 1-.633-.62v-.367c0-.342.284-.619.633-.619h.376c.35 0 .633.277.633.62v.367c0 .342-.283.619-.633.619zm0 9.796a.626.626 0 0 1-.633-.62v-.367c0-.342.284-.62.633-.62h.376c.35 0 .633.278.633.62v.368c0 .341-.283.619-.633.619zm4.926-4.979a.626.626 0 0 1-.633-.619v-.367c0-.342.283-.62.633-.62h.375c.35 0 .633.278.633.62v.367c0 .342-.283.62-.633.62zm-10.015 0a.626.626 0 0 1-.633-.619v-.367c0-.342.283-.62.633-.62h.375c.35 0 .634.278.634.62v.367c0 .342-.284.62-.634.62zm7.766 5.021a.58.58 0 0 1 .75.305.557.557 0 0 1-.31.734.58.58 0 0 1-.75-.304.558.558 0 0 1 .31-.735zM13.4 7.897a.58.58 0 0 1 .75.304.558.558 0 0 1-.31.734.58.58 0 0 1-.751-.304.558.558 0 0 1 .31-.734zm8.554 4.428a.558.558 0 0 1 .311-.735.58.58 0 0 1 .75.304.558.558 0 0 1-.31.735.58.58 0 0 1-.75-.304zM9.312 17.463a.558.558 0 0 1 .311-.734.579.579 0 0 1 .751.304.558.558 0 0 1-.31.734.58.58 0 0 1-.752-.304zm0-5.569a.58.58 0 0 1 .751-.304.558.558 0 0 1 .311.735.58.58 0 0 1-.75.304.558.558 0 0 1-.312-.735zm9.177-2.959a.558.558 0 0 1-.31-.734.58.58 0 0 1 .75-.304.558.558 0 0 1 .31.734.58.58 0 0 1-.75.304zm3.465 8.098a.579.579 0 0 1 .75-.304.558.558 0 0 1 .312.734.58.58 0 0 1-.75.304.558.558 0 0 1-.312-.734zm-8.883 4.588a.557.557 0 0 1-.31-.734.58.58 0 0 1 .75-.304.558.558 0 0 1 .31.734.58.58 0 0 1-.75.304zm8.443-1.63a.334.334 0 0 1 .464 0c.129.126.129.33 0 .455s-.335.125-.464 0a.316.316 0 0 1 0-.454zM10.35 8.912c.128-.125.336-.125.464 0s.128.33 0 .455a.334.334 0 0 1-.464 0 .316.316 0 0 1 0-.454zm11.164.455a.316.316 0 0 1 0-.454c.129-.126.336-.126.464 0s.129.328 0 .454a.334.334 0 0 1-.464 0zM10.35 20.446a.316.316 0 0 1 0-.454.334.334 0 0 1 .464 0c.128.125.128.329 0 .454s-.336.125-.464 0zm13.53-5.847c0-.178.148-.322.329-.322.181 0 .328.144.328.322a.325.325 0 0 1-.328.32.325.325 0 0 1-.328-.32zm-15.925 0c0-.178.147-.322.329-.322.18 0 .328.144.328.322a.325.325 0 0 1-.328.32.325.325 0 0 1-.329-.32zm8.21-7.387a.325.325 0 0 1-.33-.321c0-.178.148-.322.33-.322.18 0 .328.144.328.322a.325.325 0 0 1-.329.32zm0 15.576a.325.325 0 0 1-.33-.32c0-.178.148-.322.33-.322.18 0 .328.144.328.321a.325.325 0 0 1-.329.321zm10.178-8.19c0-.177.148-.32.329-.32.18 0 .328.143.328.32a.325.325 0 0 1-.328.322.325.325 0 0 1-.329-.321zm-21.097-.16c.136 0 .247.108.247.24s-.11.242-.247.242c-.136 0-.246-.108-.246-.241s.11-.241.246-.241zM15.672 4.321c0-.177.147-.321.328-.321s.328.144.328.321c0 .177-.147.321-.328.321s-.328-.144-.328-.32zm9.725 14.105a.497.497 0 0 1 .645-.257c.25.104.368.387.263.632a.494.494 0 0 1-.646.256.479.479 0 0 1-.262-.631zm-5.33 5.19c.082.034.144.096.177.176a.313.313 0 0 1-.001.245.331.331 0 0 1-.606-.004.313.313 0 0 1 0-.245.323.323 0 0 1 .18-.173.337.337 0 0 1 .25.002zM6.442 10.289c.08.034.143.096.176.175a.313.313 0 0 1-.001.246.331.331 0 0 1-.606-.004.313.313 0 0 1 .001-.246.322.322 0 0 1 .179-.172.336.336 0 0 1 .251.001zm-.916 8.25a.414.414 0 0 1 .538-.214.398.398 0 0 1 .218.526.414.414 0 0 1-.538.213.398.398 0 0 1-.218-.526zM19.863 5.252a.398.398 0 0 1-.219-.526.414.414 0 0 1 .538-.214.398.398 0 0 1 .218.526.414.414 0 0 1-.537.214zm6.141 4.867a.251.251 0 0 1 .189.001.24.24 0 0 1-.003.445.249.249 0 0 1-.321-.132.234.234 0 0 1 .001-.185.242.242 0 0 1 .134-.129zM11.587 4.95a.247.247 0 0 1 .322-.128.239.239 0 0 1-.003.445.25.25 0 0 1-.188-.001.24.24 0 0 1-.131-.316zm.063 18.962c.032 0 .064.007.095.02a.239.239 0 0 1 .131.315.248.248 0 0 1-.322.128.24.24 0 0 1-.132-.315.247.247 0 0 1 .228-.148zm11.642-1.7a.334.334 0 0 1-.465 0 .316.316 0 0 1 0-.454.33.33 0 0 1 .233-.094.33.33 0 0 1 .232.094.316.316 0 0 1 0 .455zM7.935 7.033a.501.501 0 0 1 .697 0 .475.475 0 0 1 0 .681.497.497 0 0 1-.697 0 .475.475 0 0 1 0-.681zm15.525.09a.248.248 0 0 1 .348 0 .238.238 0 0 1 0 .34.25.25 0 0 1-.348 0 .236.236 0 0 1 0-.34zM8.027 21.735a.248.248 0 0 1 .348 0 .237.237 0 0 1 0 .34.25.25 0 0 1-.348 0 .237.237 0 0 1 0-.34zM16.082 26a.406.406 0 0 1-.41-.401c0-.222.183-.402.41-.402.227 0 .41.18.41.402a.406.406 0 0 1-.41.401z"/><filter id="d" height="115.9%" width="115.9%" x="-8%" y="-5.7%"><feOffset dy=".5" in="SourceAlpha" result="shadowOffsetOuter1"/><feGaussianBlur in="shadowOffsetOuter1" result="shadowBlurOuter1" stdDeviation=".5"/><feColorMatrix in="shadowBlurOuter1" values="0 0 0 0 0 0 0 0 0 0 0 0 0 0 0 0 0 0 0.204257246 0"/></filter></defs><g fill="none" fill-rule="evenodd"><use fill="#000" filter="url(#a)" xlink:href="#b"/><use fill="#005fff" xlink:href="#b"/><use fill="url(#c)" xlink:href="#b"/><circle cx="16" cy="15" r="14.5" stroke="#000" stroke-opacity=".097"/><use fill="#000" filter="url(#d)" xlink:href="#e"/><use fill="#fff" xlink:href="#e"/></g></svg>
